preferences/22/preferences-desktop-cursors.svg

<svg width="22" height="22" version="1.1" viewBox="0 0 22 22" xmlns="http://www.w3.org/2000/svg" xmlns:xlink="http://www.w3.org/1999/xlink">
<defs>
<linearGradient id="linearGradient3403" x1="6.9492" x2="11.215" y1="4.5549" y2="59.052" gradientUnits="userSpaceOnUse">
<stop style="stop-color:#32373c" offset="0"/>
<stop style="stop-color:#1a1a1a" offset=".36805"/>
<stop style="stop-color:#31363b" offset="1"/>
</linearGradient>
<linearGradient id="linearGradient20558" x1="25.802" x2="25.111" y1="20.374" y2="58.913" gradientUnits="userSpaceOnUse">
<stop style="stop-color:#3d3d3d" offset="0"/>
<stop offset=".61772"/>
<stop style="stop-color:#3d3d3d" offset="1"/>
</linearGradient>
<linearGradient id="linearGradient4557" x1="43.5" x2="44.142" y1="64.012" y2=".30621" gradientTransform="translate(.36068 -.13017)" gradientUnits="userSpaceOnUse">
<stop style="stop-color:#141618" offset="0"/>
<stop style="stop-color:#686868" offset=".51821"/>
<stop style="stop-color:#31363b" offset="1"/>
</linearGradient>
<linearGradient id="b" x1="2" x2="2" y1="30" y2="2" gradientUnits="userSpaceOnUse">
<stop stop-color="#c6cdd1" offset="0"/>
<stop stop-color="#e0e5e7" offset="1"/>
</linearGradient>
<linearGradient id="c" x1="10" x2="23" y1="14" y2="27" gradientUnits="userSpaceOnUse" xlink:href="#a"/>
<linearGradient id="a">
<stop stop-color="#292c2f" offset="0"/>
<stop stop-opacity="0" offset="1"/>
</linearGradient>
<linearGradient id="d" x1="21" x2="33" y1="8" y2="20" gradientUnits="userSpaceOnUse" xlink:href="#a"/>
</defs>
<g transform="matrix(.67351 0 0 .67351 .78058 .32579)">
<rect x="2" y="2" width="28" height="28" rx="2" fill="url(#b)" fill-rule="evenodd" style="fill:url(#b)"/>
<path d="m6.297 23.703 6.297 6.297h12.013l-4.303-4.303 3.408-3.409-16-16-0.712 0.712z" fill="url(#c)" opacity=".2" style="fill:url(#c)"/>
<path d="m6 7.013v16c0 0.523 0.476 1 1 1h3.594l2.686 2.687c0.295 0.296 0.784 0.375 1.156 0.188l1-0.5c0.328-0.16 0.554-0.51 0.563-0.875v-3.594l2.719-2.719c0.365-0.37 0.365-1.036 0-1.406l-11-11.5c-0.82-0.82-1.736-0.235-1.719 0.719z" fill="#fff"/>
<path d="m20.303 9.697 2 2 1.409 10.591-3.409 3.408 4.305 4.304h5.392v-19.393l-3.304-3.303z" fill="url(#d)" opacity=".2" style="fill:url(#d)"/>
<path d="m7 23v-16l11 11.5-3 3v4l-1 0.5-3-3z" fill="#4d4d4d"/>
<path d="m20.813 7a1.033 1.033 0 0 0-0.813 1v1c0 0.524 0.476 1 1 1 0 0 0.456 4e-3 0.875 0.063 0.06 8e-3 0.07 0.02 0.125 0.03v12.813c-0.056 0.011-0.065 0.023-0.125 0.032-0.42 0.058-0.875 0.062-0.875 0.062-0.524 0-1 0.476-1 1v1c0 0.524 0.476 1 1 1h1.75c0.424 0 0.547-0.194 0.75-0.344 0.213 0.148 0.35 0.344 0.75 0.344h1.75c0.524 0 1-0.476 1-1v-1c0-0.524-0.476-1-1-1 0 0-0.456-4e-3 -0.875-0.063-0.06-8e-3 -0.07-0.02-0.125-0.03v-12.814c0.056-0.01 0.065-0.023 0.125-0.031 0.42-0.06 0.875-0.063 0.875-0.063 0.524 0 1-0.476 1-1v-0.999c0-0.523-0.476-1-1-1h-1.75c-0.4 0-0.537 0.196-0.75 0.344-0.203-0.15-0.326-0.344-0.75-0.344h-1.75a1.464 1.464 0 0 0-0.094 0 1.464 1.464 0 0 0-0.093 0z" fill="#fff"/>
<path d="m21 8v1s2 0.031 2 0.531v13.939c0 0.5-2 0.531-2 0.531v1h1.75c0.364 0 0.75-0.531 0.75-0.531s0.406 0.334 0.75 0.531h1.75v-1s-2-0.031-2-0.531v-13.94c0-0.5 2-0.531 2-0.531v-0.999h-1.75c-0.397 0-0.75 0.531-0.75 0.531s-0.386-0.531-0.75-0.531z" fill="#4d4d4d"/>
<path d="m2 27v1c0 1.108 0.892 2 2 2h24c1.108 0 2-0.892 2-2v-1c0 1.108-0.892 2-2 2h-24c-1.108 0-2-0.892-2-2z" fill="#292c2f" fill-rule="evenodd" opacity=".3"/>
</g>
<path transform="matrix(.33359 0 0 .33359 .46552 .363)" d="m4.7043 3.9815-0.012938 56.82h53.904l1.0222-2.8664s-23.875 0.76639-32.844-4.1404c-10.516-5.7529-15.372-49.697-15.372-49.697z" style="fill:url(#linearGradient3403);mix-blend-mode:normal;stroke-linejoin:round;stroke-width:1.1624;stroke:url(#linearGradient20558)"/>
<rect transform="matrix(.31251 0 0 .31187 1.026 1.0371)" x="1.0324" y=".59551" width="62.567" height="62.867" rx="5.803" ry="6.2447" style="fill:none;stroke-linejoin:round;stroke-miterlimit:7.8;stroke-opacity:.99515;stroke-width:3.7137;stroke:url(#linearGradient4557)"/>
</svg>

<?xml version="1.0" encoding="UTF-8" standalone="no"?>
<!-- Created with Inkscape (http://www.inkscape.org/) -->

<svg
   width="22"
   height="22"
   version="1.1"
   viewBox="0 0 22 22"
   id="svg22"
   sodipodi:docname="preferences-desktop-cursors.svg"
   inkscape:version="1.1.2 (0a00cf5339, 2022-02-04)"
   xmlns:inkscape="http://www.inkscape.org/namespaces/inkscape"
   xmlns:sodipodi="http://sodipodi.sourceforge.net/DTD/sodipodi-0.dtd"
   xmlns:xlink="http://www.w3.org/1999/xlink"
   xmlns="http://www.w3.org/2000/svg"
   xmlns:svg="http://www.w3.org/2000/svg">
  <sodipodi:namedview
     id="namedview24"
     pagecolor="#ffffff"
     bordercolor="#666666"
     borderopacity="1.0"
     inkscape:showpageshadow="2"
     inkscape:pageopacity="0.0"
     inkscape:pagecheckerboard="0"
     inkscape:deskcolor="#d1d1d1"
     showgrid="false"
     inkscape:zoom="25.62"
     inkscape:cx="-0.50741608"
     inkscape:cy="15.768931"
     inkscape:window-width="3440"
     inkscape:window-height="1356"
     inkscape:window-x="0"
     inkscape:window-y="0"
     inkscape:window-maximized="1"
     inkscape:current-layer="svg22"
     inkscape:pageshadow="2" />
  <defs
     id="defs12">
    <linearGradient
       id="linearGradient1005-3-3"
       x1="5.2535"
       x2="9.3823996"
       y1="15.383"
       y2="2.9421"
       gradientTransform="matrix(0.99999,0,0,0.99999,1.632,-0.61743)"
       gradientUnits="userSpaceOnUse">
      <stop
         stop-color="#fa8200"
         offset="0"
         id="stop2" />
      <stop
         stop-color="#ff9600"
         offset=".36953"
         id="stop4" />
      <stop
         stop-color="#ffb400"
         offset="1"
         id="stop6" />
    </linearGradient>
    <filter
       id="filter4014"
       x="-0.062499933"
       y="-0.057692993"
       width="1.1249999"
       height="1.115386"
       color-interpolation-filters="sRGB">
      <feGaussianBlur
         stdDeviation="1.093751"
         id="feGaussianBlur9" />
    </filter>
    <linearGradient
       inkscape:collect="always"
       xlink:href="#linearGradient3487"
       id="linearGradient3403"
       gradientUnits="userSpaceOnUse"
       x1="6.9491749"
       y1="4.5549412"
       x2="11.215498"
       y2="59.052471" />
    <linearGradient
       id="linearGradient3487">
      <stop
         style="stop-color:#32373c;stop-opacity:1"
         offset="0"
         id="stop3481" />
      <stop
         id="stop3483"
         offset="0.36804965"
         style="stop-color:#1a1a1a;stop-opacity:1" />
      <stop
         style="stop-color:#31363b;stop-opacity:1"
         offset="1"
         id="stop3485" />
    </linearGradient>
    <linearGradient
       inkscape:collect="always"
       xlink:href="#linearGradient20604"
       id="linearGradient20558"
       gradientUnits="userSpaceOnUse"
       x1="25.802212"
       y1="20.373846"
       x2="25.111048"
       y2="58.912758" />
    <linearGradient
       id="linearGradient20604">
      <stop
         id="stop20598"
         offset="0"
         style="stop-color:#3d3d3d;stop-opacity:1" />
      <stop
         style="stop-color:#000000;stop-opacity:1"
         offset="0.61772454"
         id="stop20600" />
      <stop
         id="stop20602"
         offset="1"
         style="stop-color:#3d3d3d;stop-opacity:1" />
    </linearGradient>
    <filter
       inkscape:collect="always"
       style="color-interpolation-filters:sRGB"
       id="filter20720"
       x="-0.017024755"
       y="-0.016457183"
       width="1.0340491"
       height="1.0329144">
      <feGaussianBlur
         inkscape:collect="always"
         stdDeviation="0.14745661"
         id="feGaussianBlur20722" />
    </filter>
    <linearGradient
       gradientTransform="translate(0.36067797,-0.13016949)"
       xlink:href="#linearGradient4555"
       id="linearGradient4557"
       x1="43.499737"
       y1="64.011795"
       x2="44.141731"
       y2="0.30621234"
       gradientUnits="userSpaceOnUse" />
    <linearGradient
       id="linearGradient4555">
      <stop
         style="stop-color:#141618;stop-opacity:1"
         offset="0"
         id="stop4551" />
      <stop
         id="stop4559"
         offset="0.51820582"
         style="stop-color:#686868;stop-opacity:1" />
      <stop
         style="stop-color:#31363b;stop-opacity:1"
         offset="1"
         id="stop4553" />
    </linearGradient>
    <filter
       style="color-interpolation-filters:sRGB"
       id="filter4601"
       x="-0.030244762"
       width="1.0604895"
       y="-0.030100647"
       height="1.0602013">
      <feGaussianBlur
         stdDeviation="0.014790289"
         id="feGaussianBlur4603" />
    </filter>
    <linearGradient
       id="b"
       gradientUnits="userSpaceOnUse"
       x1="2"
       x2="2"
       y1="30"
       y2="2">
      <stop
         offset="0"
         stop-color="#c6cdd1"
         id="stop9" />
      <stop
         offset="1"
         stop-color="#e0e5e7"
         id="stop11" />
    </linearGradient>
    <linearGradient
       id="c"
       gradientUnits="userSpaceOnUse"
       x1="10"
       x2="23"
       xlink:href="#a"
       y1="14"
       y2="27" />
    <linearGradient
       id="a">
      <stop
         offset="0"
         stop-color="#292c2f"
         id="stop2-5" />
      <stop
         offset="1"
         stop-opacity="0"
         id="stop4-9" />
    </linearGradient>
    <linearGradient
       id="d"
       gradientUnits="userSpaceOnUse"
       x1="21"
       x2="33"
       xlink:href="#a"
       y1="8"
       y2="20" />
  </defs>
  <g
     id="g859"
     transform="matrix(0.67351109,0,0,0.67351109,0.78057826,0.32579056)">
    <rect
       fill="url(#b)"
       fill-rule="evenodd"
       height="28"
       rx="2"
       width="28"
       x="2"
       y="2"
       id="rect14"
       style="fill:url(#b)" />
    <path
       d="M 6.297,23.703 12.594,30 h 12.013 l -4.303,-4.303 3.408,-3.409 -16,-16 L 7,7 Z"
       fill="url(#c)"
       opacity="0.2"
       id="path16"
       style="fill:url(#c)" />
    <path
       d="m 6,7.013 v 16 c 0,0.523 0.476,1 1,1 h 3.594 L 13.28,26.7 c 0.295,0.296 0.784,0.375 1.156,0.188 l 1,-0.5 c 0.328,-0.16 0.554,-0.51 0.563,-0.875 V 21.919 L 18.718,19.2 c 0.365,-0.37 0.365,-1.036 0,-1.406 l -11,-11.5 C 6.898,5.474 5.982,6.059 5.999,7.013 Z"
       fill="#ffffff"
       id="path18" />
    <path
       d="m 20.303,9.697 2,2 1.409,10.591 -3.409,3.408 L 24.608,30 H 30 V 10.607 L 26.696,7.304 Z"
       fill="url(#d)"
       opacity="0.2"
       id="path20"
       style="fill:url(#d)" />
    <path
       d="M 7,23 V 7 l 11,11.5 -3,3 v 4 L 14,26 11,23 Z"
       fill="#4d4d4d"
       id="path22" />
    <path
       d="M 20.813,7 A 1.033,1.033 0 0 0 20,8 v 1 c 0,0.524 0.476,1 1,1 0,0 0.456,0.004 0.875,0.063 0.06,0.008 0.07,0.02 0.125,0.03 v 12.813 c -0.056,0.011 -0.065,0.023 -0.125,0.032 C 21.455,22.996 21,23 21,23 c -0.524,0 -1,0.476 -1,1 v 1 c 0,0.524 0.476,1 1,1 h 1.75 c 0.424,0 0.547,-0.194 0.75,-0.344 C 23.713,25.804 23.85,26 24.25,26 H 26 c 0.524,0 1,-0.476 1,-1 v -1 c 0,-0.524 -0.476,-1 -1,-1 0,0 -0.456,-0.004 -0.875,-0.063 -0.06,-0.008 -0.07,-0.02 -0.125,-0.03 V 10.093 c 0.056,-0.01 0.065,-0.023 0.125,-0.031 C 25.545,10.002 26,9.999 26,9.999 c 0.524,0 1,-0.476 1,-1 V 8 C 27,7.477 26.524,7 26,7 H 24.25 C 23.85,7 23.713,7.196 23.5,7.344 23.297,7.194 23.174,7 22.75,7 H 21 a 1.464,1.464 0 0 0 -0.094,0 1.464,1.464 0 0 0 -0.093,0 z"
       fill="#ffffff"
       id="path24" />
    <path
       d="m 21,8 v 1 c 0,0 2,0.031 2,0.531 V 23.47 c 0,0.5 -2,0.531 -2,0.531 v 1 h 1.75 c 0.364,0 0.75,-0.531 0.75,-0.531 0,0 0.406,0.334 0.75,0.531 H 26 v -1 c 0,0 -2,-0.031 -2,-0.531 V 9.53 c 0,-0.5 2,-0.531 2,-0.531 V 8 H 24.25 C 23.853,8 23.5,8.531 23.5,8.531 23.5,8.531 23.114,8 22.75,8 Z"
       fill="#4d4d4d"
       id="path26" />
    <path
       d="m 2,27 v 1 c 0,1.108 0.892,2 2,2 h 24 c 1.108,0 2,-0.892 2,-2 v -1 c 0,1.108 -0.892,2 -2,2 H 4 C 2.892,29 2,28.108 2,27 Z"
       fill="#292c2f"
       fill-rule="evenodd"
       opacity="0.3"
       id="path28" />
  </g>
  <path
     style="display:inline;mix-blend-mode:normal;fill:url(#linearGradient3403);fill-opacity:1;stroke:url(#linearGradient20558);stroke-width:1.16242;stroke-linecap:butt;stroke-linejoin:round;stroke-miterlimit:4;stroke-dasharray:none;stroke-opacity:1;filter:url(#filter20720)"
     d="M 4.7043071,3.9814882 4.6913695,60.80196 H 58.59546 l 1.022155,-2.866369 c 0,0 -23.87537,0.766388 -32.844441,-4.140386 C 16.257548,48.042344 11.401114,4.0978197 11.401114,4.0978197 Z"
     id="path1686"
     sodipodi:nodetypes="ccccscc"
     transform="matrix(0.33359445,0,0,0.33359445,0.46552015,0.36300256)"
     inkscape:label="folder" />
  <rect
     style="display:inline;fill:none;fill-opacity:1;stroke:url(#linearGradient4557);stroke-width:3.71366;stroke-linejoin:round;stroke-miterlimit:7.8;stroke-dasharray:none;stroke-opacity:0.995146;filter:url(#filter4601)"
     id="rect4539"
     width="62.567089"
     height="62.866646"
     x="1.0323594"
     y="0.59551275"
     ry="6.2447233"
     rx="5.8029528"
     transform="matrix(0.31250553,0,0,0.31186857,1.026013,1.0370954)"
     inkscape:label="contour" />
</svg>
